X: 38
T: Bifa'at Hakfar
C: Emanuel Zamir 1970
O: Israel
M: 2/4
L: 1/8
Q: 1/4=144
K: Cm
%%MIDI program 23
%%MIDI drum d2d2 42 42 70 50
%%MIDI drumon
|:z2G2|FGEF   |DCCB,|C2zG-  |\
  GEFA|G4     |FFEC |FFE/D/C|
  FFEC    |FFE/D/C|CFzG     |ECDE   |C4  :|\
|:zGc2|cdBc   |AGGF     |GGc2   |cdBc|AGGF|G2z2 :|



